src/icons/icons_set_04/027-restaurant.svg

<svg height="50" viewBox="0 0 50 50" width="50" xmlns="http://www.w3.org/2000/svg"><g fill="none" fill-rule="nonzero" stroke="#000" stroke-linecap="round" stroke-width="4"><path d="m19.6877441 30.1875c-3.5418294 4.6666667-5.5210774 7.2916667-5.9377441 7.875-.625.875-.6870117 2.5.6252441 3.4375 1.3122559.9375 2.4997559.1875 3.1247559-.5625.4166667-.5 1.9791667-2.8125 4.6875-6.9375"/><path d="m6.1875 12.9375c4.0322024 6.0310925 6.5322024 9.5519259 7.5 10.5625s2.5094643 1.3022408 4.625.875l11.5 18.625c1.7326104.6259281 3.2117771.4592614 4.4375-.5s1.6841377-2.4175948 1.3752441-4.375l-13.2502441-17c.42615-2.5.3035208-4.1458333-.3678875-4.9375s-3.0071939-4.041748-7.0073566-9.75024414" stroke-linejoin="round"/><path d="m10.5 9.375 6.4372559 9.4997559"/><path d="m23.3361328 17.7340488c1.3759467.1643028 1.1540106.6407676 2.9207885 1.9830725 1.766778 1.342305 4.4499063 2.1987888 7.454232 2.1987888 5.3206415 0 9.6338737-2.6862915 9.6338737-6s-4.3132322-6.00000001-9.6338737-6.00000001c-3.1420761 0-5.9328253.93682511-7.6914192 2.38645381-.914057 1.2513162-1.7059277 1.8480337-2.3756123 1.7901523" transform="matrix(.60181502 -.79863551 .79863551 .60181502 .564707 32.964447)"/></g></svg>

<?xml version="1.0" encoding="UTF-8"?>
<svg width="50px" height="50px" viewBox="0 0 50 50" version="1.1" xmlns="http://www.w3.org/2000/svg" xmlns:xlink="http://www.w3.org/1999/xlink">
    <!-- Generator: Sketch 52.2 (67145) - http://www.bohemiancoding.com/sketch -->
    <title>027-restaurant</title>
    <desc>Created with Sketch.</desc>
    <g id="027-restaurant" stroke="none" stroke-width="1" fill="none" fill-rule="evenodd" stroke-linecap="round">
        <path d="M19.6877441,30.1875 C16.1459147,34.8541667 14.1666667,37.4791667 13.75,38.0625 C13.125,38.9375 13.0629883,40.5625 14.3752441,41.5 C15.6875,42.4375 16.875,41.6875 17.5,40.9375 C17.9166667,40.4375 19.4791667,38.125 22.1875,34" id="Path-2" stroke="#000000" stroke-width="4" fill-rule="nonzero"></path>
        <path d="M6.1875,12.9375 C10.2197024,18.9685925 12.7197024,22.4894259 13.6875,23.5 C14.6552976,24.5105741 16.1969643,24.8022408 18.3125,24.375 L29.8125,43 C31.5451104,43.6259281 33.0242771,43.4592614 34.25,42.5 C35.4757229,41.5407386 35.9341377,40.0824052 35.6252441,38.125 L22.375,21.125 C22.80115,18.625 22.6785208,16.9791667 22.0071125,16.1875 C21.3357042,15.3958333 18.9999186,12.145752 14.9997559,6.43725586" id="Path-3" stroke="#000000" stroke-width="4" stroke-linejoin="round" fill-rule="nonzero"></path>
        <path d="M10.5,9.375 L16.9372559,18.8747559" id="Path-4" stroke="#000000" stroke-width="4" fill-rule="nonzero"></path>
        <path d="M23.3361328,17.7340488 C24.7120795,17.8983516 24.4901434,18.3748164 26.2569213,19.7171213 C28.0236993,21.0594263 30.7068276,21.9159101 33.7111533,21.9159101 C39.0317948,21.9159101 43.345027,19.2296186 43.345027,15.9159101 C43.345027,12.6022016 39.0317948,9.91591009 33.7111533,9.91591009 C30.5690772,9.91591009 27.778328,10.8527352 26.0197341,12.3023639 C25.1056771,13.5536801 24.3138064,14.1503976 23.6441218,14.0925162" id="Oval" stroke="#000000" stroke-width="4" fill-rule="nonzero" transform="translate(33.340580, 15.915910) rotate(-53.000000) translate(-33.340580, -15.915910) "></path>
    </g>
</svg>
